X: 34
T: Mr John Begg's Favourite
R: jig
Q: "Slow"
B: William Shepherd "1st Collection" 1793 p.3 #4
F: http://imslp.org/wiki/File:PMLP73094-Shepherd_Collections_HMT.pdf
C: William Shepherd (17??-1812)
Z: 2012 John Chambers <jc:trillian.mit.edu>
M: 6/8
L: 1/8
K: Bb
F |\
{Bc}d>cB TF<DF | G<BB B2c | {Bc}d>cB TF<DF | G<cc c2e |\
{Bc}d>cB TF<DF | G<EG F<DF | Ege fdB | F<BB B2 :|
|: Td/e/ |\
fdB TB>dB | gec Tc>de | f>dB f>dB | A<Tcc c2d/e/ |\
fdB fdB | g<ec {ga}Hb>ag | f<dB AcTF | G<BTB B2 :|
